local/share/icons/dracula-icons-main/scalable/apps/rubymine.svg

<?xml version="1.0" encoding="UTF-8"?>
<svg xmlns="http://www.w3.org/2000/svg" xmlns:xlink="http://www.w3.org/1999/xlink" width="64" height="64" viewBox="0 0 64 64">
<path fill-rule="nonzero" fill="rgb(90.980392%, 46.666667%, 47.058824%)" fill-opacity="1" d="M 15.609375 8.464844 C 15.609375 12.410156 12.410156 15.609375 8.464844 15.609375 C 4.519531 15.609375 1.324219 12.410156 1.324219 8.464844 C 1.324219 4.519531 4.519531 1.324219 8.464844 1.324219 C 12.410156 1.324219 15.609375 4.519531 15.609375 8.464844 Z M 15.609375 8.464844 "/>
<path fill-rule="nonzero" fill="rgb(18.823529%, 18.823529%, 18.823529%)" fill-opacity="1" d="M 5.820312 4.496094 L 11.113281 4.496094 C 11.84375 4.496094 12.433594 5.089844 12.433594 5.820312 L 12.433594 11.113281 C 12.433594 11.84375 11.84375 12.433594 11.113281 12.433594 L 5.820312 12.433594 C 5.089844 12.433594 4.496094 11.84375 4.496094 11.113281 L 4.496094 5.820312 C 4.496094 5.089844 5.089844 4.496094 5.820312 4.496094 Z M 5.820312 4.496094 "/>
<path fill-rule="nonzero" fill="rgb(97.647059%, 97.647059%, 97.647059%)" fill-opacity="1" d="M 8.464844 5.359375 L 9.085938 5.359375 L 10.019531 6.914062 L 10.949219 5.359375 L 11.570312 5.359375 L 11.570312 8.777344 L 10.949219 8.777344 L 10.949219 6.601562 L 10.019531 8.15625 L 9.085938 6.601562 L 9.085938 8.777344 L 8.464844 8.777344 M 6.601562 5.359375 C 7.222656 5.359375 7.84375 5.84375 7.84375 6.449219 C 7.84375 6.914062 7.550781 7.195312 7.160156 7.417969 L 7.84375 8.777344 L 7.222656 8.777344 L 6.601562 7.535156 L 5.980469 7.535156 L 5.980469 8.777344 L 5.359375 8.777344 L 5.359375 5.359375 Z M 6.601562 6.914062 C 7.085938 6.914062 7.222656 6.691406 7.234375 6.449219 C 7.222656 6.230469 7.09375 5.980469 6.601562 5.980469 L 5.980469 5.980469 L 5.980469 6.914062 Z M 6.601562 6.914062 "/>
<path fill-rule="nonzero" fill="rgb(97.647059%, 97.647059%, 97.647059%)" fill-opacity="1" d="M 5.050781 10.949219 L 8.15625 10.949219 L 8.15625 11.570312 L 5.050781 11.570312 Z M 5.050781 10.949219 "/>
</svg>

<svg width="64" height="64" version="1.1" viewBox="0 0 16.933 16.933" xmlns="http://www.w3.org/2000/svg">
 <path d="m15.61 8.4662a7.1435 7.1435 0 0 1-7.1435 7.1435 7.1435 7.1435 0 0 1-7.1435-7.1435 7.1435 7.1435 0 0 1 7.1435-7.1435 7.1435 7.1435 0 0 1 7.1435 7.1435z" fill="#e87778" stroke-width=".26457"/>
 <rect x="4.4978" y="4.4978" width="7.9373" height="7.9373" rx="1.3229" ry="1.3229" fill="#303030" style="paint-order:markers stroke fill"/>
 <path d="m8.4664 5.3605h0.62117l0.93176 1.553 0.93176-1.553h0.62117v3.4165h-0.62117v-2.1741l-0.93176 1.553-0.93176-1.553v2.1741h-0.62117m-1.8636-3.4165c0.62117 0 1.2423 0.48368 1.2423 1.0871 0 0.46589-0.29258 0.74855-0.68514 0.97105l0.68514 1.3583h-0.62117l-0.62117-1.2423h-0.62117v1.2423h-0.62117v-3.4165zm0 1.553c0.48459 0 0.62117-0.22126 0.6298-0.46589-0.008625-0.21671-0.13728-0.46589-0.6298-0.46589h-0.62117v0.93176z" fill="#f9f9f9" stroke-width=".26457"/>
 <path d="m5.0499 10.951h3.1059v0.62118h-3.1059z" fill="#f9f9f9" stroke-width=".26457"/>
</svg>
